X:765
T:O Gin Ye Were Dead Gudeman
R:Country Dances
B:The Athole Collection
M:C|
L:1/8
K:F
CD/E/|F2F2c2F2|A2G2 GBAG|F2F2c2F2|A2f2c3f|
fefc ABcA|fdcA G2AG|F2f2 cdBc|A2F2F2:|
|:c/d/e|fefg fgaf|gfga agfd|cdfg fgag|fgfc ABcA|
defc ABcA|fdcA G2AG|F2f2 cdBc|A2F2F2:|

